X:25
M:C
L:1/8
K:D
d2fg a2fd | cecA Aeef | 
defg ^gafd | edcB Add2 :|
"tr"F2ED DddF | "tr"G2FE EeeG |
"tr"F2ED DddF | "tr"G2FE Eeeg | 
fagf gbag | faea fdd2 :|

